X:160 
T:Paddy Fahy's Reel 3
B:CRE5.114 (Ril PhÃÂÃÂÃÂÃÂ¡idÃÂÃÂÃÂÃÂ­ UÃÂÃÂÃÂÃÂ­ Fhathaigh iii)
F:file ID: cre.5/160pad_f_R3
Q:180
M:4/4
R:reel
K:C
G,CEG c2 cA|_BABF DB ~B2|G,CEG cBcd|ecdB GcBd|
~c3G EGcA|_BABF DB ~B2| G,CEG cBGF|DEB,D C2 EG||
c2Ac BAGB|AF ~F2 G2 AB|c2 cA Bcdf|ecdB GccB|
cecA _BdBd|AF ~F2 Gcdf|ecBd cBGA|_B2 cA BGFD|\
"last time"C8|]


%%%

